build/system/ShowSolid.svg

<svg xmlns="http://www.w3.org/2000/svg" fill="none" viewBox="0 0 24 24" focusable="false"><path d="M0 0H24V24H0z"/><path fill="#74767B" fill-rule="evenodd" d="M2.7876 7.77451C2.7876 6.31095 3.97404 5.12451 5.4376 5.12451L18.5625 5.12451C20.0261 5.12451 21.2125 6.31096 21.2125 7.77451L21.2125 16.2256C21.2125 17.6892 20.0261 18.8756 18.5625 18.8756L5.4376 18.8756C3.97404 18.8756 2.7876 17.6892 2.7876 16.2256L2.7876 7.77451ZM11.5403 8.87336C11.7941 8.61952 12.2057 8.61952 12.4595 8.87336L15.1267 11.5405C15.3806 11.7944 15.3806 12.2059 15.1267 12.4598C14.8729 12.7136 14.4613 12.7136 14.2075 12.4598L12.6499 10.9022L12.6499 14.9633C12.6499 15.3223 12.3589 15.6133 11.9999 15.6133C11.6409 15.6133 11.3499 15.3223 11.3499 14.9633L11.3499 10.9022L9.79236 12.4598C9.53852 12.7136 9.12696 12.7136 8.87312 12.4598C8.61928 12.2059 8.61928 11.7944 8.87312 11.5405L11.5403 8.87336Z"/></svg>

<svg xmlns="http://www.w3.org/2000/svg" fill="none" viewBox="0 0 24 24" focusable="false"><path fill="#74767B" fill-rule="evenodd" d="M2.78 7.77c0-1.46 1.19-2.65 2.65-2.65h13.13c1.46 0 2.65 1.19 2.65 2.65v8.45c0 1.46-1.19 2.65-2.65 2.65H5.43c-1.46 0-2.65-1.19-2.65-2.65zm8.76 1.1c.25-.26.66-.26.91 0l2.67 2.67c.26.25.26.66 0 .91a.64.64 0 0 1-.92 0l-1.56-1.55v4.06c0 .36-.29.65-.64.65-.36 0-.65-.29-.65-.65V10.9l-1.56 1.55a.64.64 0 0 1-.92 0 .63.63 0 0 1 0-.91z"/></svg>
